X:1
T: Lady Mary Menzies' Reel
C:
R:Reel
Q: 232
K:F
M:4/4
L:1/8
|:f|cF AF cA fd|cF AF dG GA|cF AF cF ag|fd cA cF Ff|
cF AF cA fd|cF AF dG GA|cF AF cF ag|fd cA cF Fe|
fc ce fg ag|fd cA gd de|fd cA f1/2e1/2f1/2g1/2 ag|fd cA cF Fe|
fc ce fg ag|fd cA gd de|fd cA f1/2e1/2f1/2g1/2 ag|fd cA cF F:|
